icons/flag.svg

<svg xmlns="http://www.w3.org/2000/svg" width="96" height="96"><path d="M8 12c0-1.1.4-2.1 1.2-2.8C9.9 8.4 10.9 8 12 8c1.1 0 2.1.4 2.8 1.2.8.7 1.2 1.7 1.2 2.8v72c0 1.1-.4 2.1-1.2 2.8-.7.8-1.7 1.2-2.8 1.2-1.1 0-2.1-.4-2.8-1.2C8.4 86.1 8 85.1 8 84V12zm18.9 5.9c-1-.3-1.8-1-2.4-1.9-.5-.9-.6-2-.4-3.1.3-1 1-1.8 1.9-2.4.9-.5 2-.6 3.1-.4 3 .9 6.1 1.6 9.3 2.2 1.9.3 3.8.6 5.8.7l1.6.1c3.1-.2 6.1-.6 9.1-1.5 3.7-1 7.4-1.5 11.2-1.7h.2l1.8.1h.1c2.3.1 4.6.4 6.8.8 2.1.3 4.2.7 6.2 1.3 4 1.1 6.8 4.7 6.8 8.9v31.9c0 1.9-.6 3.7-1.9 5-1.3 1.3-3 2.1-4.8 2.2-.3 0-.5 0-.7-.1l-1-.1c-.2 0-.3-.1-.5-.1-1.8-.5-3.6-.9-5.4-1.2-1.9-.3-3.9-.5-5.9-.6l-1.6-.1c-3.1.2-6.1.6-9.1 1.5-3.7 1-7.4 1.5-11.2 1.7h-.2l-1.8-.1h-.1c-2.3-.1-4.6-.4-6.9-.9-3.4-.6-6.7-1.3-10-2.2-1-.3-1.8-1-2.4-1.9-.5-.9-.6-2-.4-3.1.3-1 1-1.8 1.9-2.4.9-.5 2-.6 3.1-.4 3 .9 6.1 1.6 9.3 2.2 1.9.3 3.8.6 5.8.7l1.6.1c3.1-.2 6.1-.6 9.1-1.5 3.7-1 7.4-1.5 11.2-1.7h.2l1.8.1h.1c2.3.1 4.6.4 6.8.8 1.7.2 3.4.6 5 1V21c0-.6-.4-1-.9-1.2-1.8-.5-3.6-.9-5.4-1.2-1.9-.3-3.9-.5-5.9-.6l-1.6-.1c-3.1.2-6.1.6-9.1 1.5-3.7 1-7.4 1.5-11.2 1.7h-.2l-1.8-.1h-.1c-2.3-.1-4.6-.4-6.9-.9-3.4-.6-6.7-1.3-10-2.2z" fill-rule="evenodd" fill="#454545"/></svg>

<?xml version="1.0" standalone="no"?><!-- Generator: Gravit.io --><svg xmlns="http://www.w3.org/2000/svg" xmlns:xlink="http://www.w3.org/1999/xlink" width="96" height="96"><path d=" M 8 12 C 8 10.9 8.4 9.9 9.2 9.2 C 9.9 8.4 10.9 8 12 8 C 13.100000000000001 8 14.100000000000001 8.4 14.8 9.2 C 15.600000000000001 9.9 16 10.9 16 12 L 16 84 C 16 85.1 15.600000000000001 86.1 14.8 86.8 C 14.100000000000001 87.6 13.100000000000001 88 12 88 C 10.9 88 9.9 87.6 9.2 86.8 C 8.4 86.1 8 85.1 8 84 L 8 12 Z  M 26.9 17.9 C 25.9 17.6 25.1 16.9 24.5 16 C 24 15.1 23.9 14 24.1 12.9 C 24.4 11.9 25.1 11.1 26 10.5 C 26.9 10 28 9.9 29.1 10.1 C 32.1 11 35.2 11.7 38.4 12.3 C 40.3 12.6 42.2 12.9 44.2 13 L 45.8 13.1 C 48.9 12.9 51.9 12.5 54.9 11.6 C 58.6 10.6 62.3 10.1 66.1 9.9 C 66.2 9.9 66.3 9.9 66.3 9.9 L 68.1 10 C 68.2 10 68.2 10 68.2 10 C 70.5 10.1 72.8 10.4 75 10.8 C 77.1 11.1 79.2 11.5 81.2 12.1 C 85.2 13.2 88 16.8 88 21 L 88 52.9 C 88 54.8 87.4 56.6 86.1 57.9 C 84.8 59.2 83.1 60 81.3 60.1 C 81 60.1 80.8 60.1 80.6 60 L 79.6 59.9 C 79.4 59.9 79.3 59.8 79.1 59.8 C 77.3 59.3 75.5 58.9 73.7 58.6 C 71.8 58.3 69.8 58.1 67.8 58 L 66.2 57.9 C 63.099999999999994 58.1 60.099999999999994 58.5 57.1 59.4 C 53.4 60.4 49.7 60.9 45.9 61.1 C 45.8 61.1 45.7 61.1 45.7 61.1 L 43.9 61 C 43.8 61 43.8 61 43.8 61 C 41.5 60.9 39.2 60.6 36.9 60.1 C 33.5 59.5 30.200000000000003 58.8 26.9 57.9 C 25.9 57.6 25.1 56.9 24.5 56 C 24 55.1 23.9 54 24.1 52.9 C 24.4 51.9 25.1 51.1 26 50.5 C 26.9 50 28 49.9 29.1 50.1 C 32.1 51 35.2 51.7 38.4 52.3 C 40.3 52.6 42.2 52.9 44.2 53 L 45.8 53.1 C 48.9 52.9 51.9 52.5 54.9 51.6 C 58.6 50.6 62.3 50.1 66.1 49.9 C 66.2 49.9 66.3 49.9 66.3 49.9 L 68.1 50 C 68.2 50 68.2 50 68.2 50 C 70.5 50.1 72.8 50.4 75 50.8 C 76.7 51 78.4 51.4 80 51.8 L 80 21 C 80 20.4 79.6 20 79.1 19.8 C 77.3 19.3 75.5 18.9 73.7 18.6 C 71.8 18.3 69.8 18.1 67.8 18 L 66.2 17.9 C 63.099999999999994 18.1 60.099999999999994 18.5 57.1 19.4 C 53.4 20.4 49.7 20.9 45.9 21.1 C 45.8 21.1 45.7 21.1 45.7 21.1 L 43.9 21 C 43.8 21 43.8 21 43.8 21 C 41.5 20.9 39.2 20.6 36.9 20.1 C 33.5 19.5 30.200000000000003 18.8 26.9 17.9 Z " fill-rule="evenodd" fill="#454545" stroke="none"/><mask id="_mask_dhiD4yTaty2hlIpRICsA8Y9mHzumLzDQ"><path d=" M 8 12 C 8 10.9 8.4 9.9 9.2 9.2 C 9.9 8.4 10.9 8 12 8 C 13.100000000000001 8 14.100000000000001 8.4 14.8 9.2 C 15.600000000000001 9.9 16 10.9 16 12 L 16 84 C 16 85.1 15.600000000000001 86.1 14.8 86.8 C 14.100000000000001 87.6 13.100000000000001 88 12 88 C 10.9 88 9.9 87.6 9.2 86.8 C 8.4 86.1 8 85.1 8 84 L 8 12 Z  M 26.9 17.9 C 25.9 17.6 25.1 16.9 24.5 16 C 24 15.1 23.9 14 24.1 12.9 C 24.4 11.9 25.1 11.1 26 10.5 C 26.9 10 28 9.9 29.1 10.1 C 32.1 11 35.2 11.7 38.4 12.3 C 40.3 12.6 42.2 12.9 44.2 13 L 45.8 13.1 C 48.9 12.9 51.9 12.5 54.9 11.6 C 58.6 10.6 62.3 10.1 66.1 9.9 C 66.2 9.9 66.3 9.9 66.3 9.9 L 68.1 10 C 68.2 10 68.2 10 68.2 10 C 70.5 10.1 72.8 10.4 75 10.8 C 77.1 11.1 79.2 11.5 81.2 12.1 C 85.2 13.2 88 16.8 88 21 L 88 52.9 C 88 54.8 87.4 56.6 86.1 57.9 C 84.8 59.2 83.1 60 81.3 60.1 C 81 60.1 80.8 60.1 80.6 60 L 79.6 59.9 C 79.4 59.9 79.3 59.8 79.1 59.8 C 77.3 59.3 75.5 58.9 73.7 58.6 C 71.8 58.3 69.8 58.1 67.8 58 L 66.2 57.9 C 63.099999999999994 58.1 60.099999999999994 58.5 57.1 59.4 C 53.4 60.4 49.7 60.9 45.9 61.1 C 45.8 61.1 45.7 61.1 45.7 61.1 L 43.9 61 C 43.8 61 43.8 61 43.8 61 C 41.5 60.9 39.2 60.6 36.9 60.1 C 33.5 59.5 30.200000000000003 58.8 26.9 57.9 C 25.9 57.6 25.1 56.9 24.5 56 C 24 55.1 23.9 54 24.1 52.9 C 24.4 51.9 25.1 51.1 26 50.5 C 26.9 50 28 49.9 29.1 50.1 C 32.1 51 35.2 51.7 38.4 52.3 C 40.3 52.6 42.2 52.9 44.2 53 L 45.8 53.1 C 48.9 52.9 51.9 52.5 54.9 51.6 C 58.6 50.6 62.3 50.1 66.1 49.9 C 66.2 49.9 66.3 49.9 66.3 49.9 L 68.1 50 C 68.2 50 68.2 50 68.2 50 C 70.5 50.1 72.8 50.4 75 50.8 C 76.7 51 78.4 51.4 80 51.8 L 80 21 C 80 20.4 79.6 20 79.1 19.8 C 77.3 19.3 75.5 18.9 73.7 18.6 C 71.8 18.3 69.8 18.1 67.8 18 L 66.2 17.9 C 63.099999999999994 18.1 60.099999999999994 18.5 57.1 19.4 C 53.4 20.4 49.7 20.9 45.9 21.1 C 45.8 21.1 45.7 21.1 45.7 21.1 L 43.9 21 C 43.8 21 43.8 21 43.8 21 C 41.5 20.9 39.2 20.6 36.9 20.1 C 33.5 19.5 30.200000000000003 18.8 26.9 17.9 Z " fill-rule="evenodd" fill="white" stroke="none"/></mask><path d=" M 8 12 C 8 10.9 8.4 9.9 9.2 9.2 C 9.9 8.4 10.9 8 12 8 C 13.100000000000001 8 14.100000000000001 8.4 14.8 9.2 C 15.600000000000001 9.9 16 10.9 16 12 L 16 84 C 16 85.1 15.600000000000001 86.1 14.8 86.8 C 14.100000000000001 87.6 13.100000000000001 88 12 88 C 10.9 88 9.9 87.6 9.2 86.8 C 8.4 86.1 8 85.1 8 84 L 8 12 Z  M 26.9 17.9 C 25.9 17.6 25.1 16.9 24.5 16 C 24 15.1 23.9 14 24.1 12.9 C 24.4 11.9 25.1 11.1 26 10.5 C 26.9 10 28 9.9 29.1 10.1 C 32.1 11 35.2 11.7 38.4 12.3 C 40.3 12.6 42.2 12.9 44.2 13 L 45.8 13.1 C 48.9 12.9 51.9 12.5 54.9 11.6 C 58.6 10.6 62.3 10.1 66.1 9.9 C 66.2 9.9 66.3 9.9 66.3 9.9 L 68.1 10 C 68.2 10 68.2 10 68.2 10 C 70.5 10.1 72.8 10.4 75 10.8 C 77.1 11.1 79.2 11.5 81.2 12.1 C 85.2 13.2 88 16.8 88 21 L 88 52.9 C 88 54.8 87.4 56.6 86.1 57.9 C 84.8 59.2 83.1 60 81.3 60.1 C 81 60.1 80.8 60.1 80.6 60 L 79.6 59.9 C 79.4 59.9 79.3 59.8 79.1 59.8 C 77.3 59.3 75.5 58.9 73.7 58.6 C 71.8 58.3 69.8 58.1 67.8 58 L 66.2 57.9 C 63.099999999999994 58.1 60.099999999999994 58.5 57.1 59.4 C 53.4 60.4 49.7 60.9 45.9 61.1 C 45.8 61.1 45.7 61.1 45.7 61.1 L 43.9 61 C 43.8 61 43.8 61 43.8 61 C 41.5 60.9 39.2 60.6 36.9 60.1 C 33.5 59.5 30.200000000000003 58.8 26.9 57.9 C 25.9 57.6 25.1 56.9 24.5 56 C 24 55.1 23.9 54 24.1 52.9 C 24.4 51.9 25.1 51.1 26 50.5 C 26.9 50 28 49.9 29.1 50.1 C 32.1 51 35.2 51.7 38.4 52.3 C 40.3 52.6 42.2 52.9 44.2 53 L 45.8 53.1 C 48.9 52.9 51.9 52.5 54.9 51.6 C 58.6 50.6 62.3 50.1 66.1 49.9 C 66.2 49.9 66.3 49.9 66.3 49.9 L 68.1 50 C 68.2 50 68.2 50 68.2 50 C 70.5 50.1 72.8 50.4 75 50.8 C 76.7 51 78.4 51.4 80 51.8 L 80 21 C 80 20.4 79.6 20 79.1 19.8 C 77.3 19.3 75.5 18.9 73.7 18.6 C 71.8 18.3 69.8 18.1 67.8 18 L 66.2 17.9 C 63.099999999999994 18.1 60.099999999999994 18.5 57.1 19.4 C 53.4 20.4 49.7 20.9 45.9 21.1 C 45.8 21.1 45.7 21.1 45.7 21.1 L 43.9 21 C 43.8 21 43.8 21 43.8 21 C 41.5 20.9 39.2 20.6 36.9 20.1 C 33.5 19.5 30.200000000000003 18.8 26.9 17.9 Z " fill-rule="evenodd" fill="none" stroke="none" stroke-width="16" mask="url(#_mask_dhiD4yTaty2hlIpRICsA8Y9mHzumLzDQ)"/></svg>
